X:52
T:The Merry Merry Milke Maids
T:The Merry Milk Maids in Green
M:6/8
L:1/8
K:Fmaj clef=treble
P:(AB)3
P:A
f [||: "F"f>gf "C"c2c' | "F"a3-a2f | \
"Dm"f>gf "Adim"c2_e | "Bb"d3-d2B |
"Bb"B>cd/2e/2 "Dm/F"f2d | "C"g>fe/2d/2 c2c' | \
"F"a>bc' "C"g2f | "F"f3-f2 f :|
P:B
[||:"F"a>bc' "(C)"c'>d'c' | "F"a>bc' c'>ba | \
"Bb"b2c' "(C)"d'2 e' | "F"f'3-f'2c' |
"F"f'2c' "Dm"a>bc' | "Bb"d'2b "C"g>ab | \
"F"c'2a "Dm"f>ga | "Bb"g2e "C"c>de |
"F"f2f "Bb"d>ef | "C"g2f e>dc | \
"F"a>bc' "C"g2f | "F"f3-f2 f :|

